svg/train_car_passenger_variant.svg

<svg xmlns="http://www.w3.org/2000/svg" id="mdi-train-car-passenger-variant" viewBox="0 0 24 24"><path d="M21 7H3C1.9 7 1 7.9 1 9V17H2C2 18.11 2.9 19 4 19S6 18.11 6 17H18C18 18.11 18.9 19 20 19S22 18.11 22 17H23V9C23 7.9 22.11 7 21 7M11 12H3V9H11V12M21 12H13V9H21V12Z" /></svg>

<svg xmlns="http://www.w3.org/2000/svg" viewBox="0 0 24 24"><path d="M21 7H3c-1.1 0-2 .9-2 2v8h1a2 2 0 1 0 4 0h12a2 2 0 1 0 4 0h1V9a2 2 0 0 0-2-2m-10 5H3V9h8zm10 0h-8V9h8z"/></svg>
